config/includes.chroot/usr/share/icons/Tela-circle/scalable/mimetypes/text-x-csharp.svg

<svg width="64" height="64" version="1.1" viewBox="0 0 16.933 16.933" xmlns="http://www.w3.org/2000/svg">
 <defs>
  <linearGradient id="a" x1="49.571" x2="51.714" y1="52.714" y2="54.857" gradientTransform="matrix(2.3333,0,0,2.3333,-68.667,-72.001)" gradientUnits="userSpaceOnUse">
   <stop offset="0"/>
   <stop stop-opacity="0" offset="1"/>
  </linearGradient>
 </defs>
 <g transform="scale(.26458)">
  <rect x="8" y="4" width="48" height="56" ry="5" fill="#f4f4f4" style="paint-order:stroke fill markers"/>
  <path d="m56 46-14 14h9c2.77 0 5-2.23 5-5z" fill="url(#a)" fill-rule="evenodd" opacity=".1" stroke-width="8.8191" style="paint-order:stroke fill markers"/>
 </g>
 <path d="m5.8207 6.3499s-1.0583 0-1.0583 1.0583v2.1166c0 1.0583 1.0583 1.0583 1.0583 1.0583h1.5875v-0.52916h-1.5875s-0.52916 0-0.52916-0.52916v-2.1166c0-0.52916 0.52916-0.52916 0.52916-0.52916h1.5875v-0.52916zm3.1749 0v1.0583h-1.0583v0.52916h1.0583v1.0583h-1.0583v0.52916h1.0583v1.0583h0.52916v-1.0583h1.0583v1.0583h0.52916v-1.0583h1.0583v-0.52916h-1.0583v-1.0583h1.0583v-0.52916h-1.0583v-1.0583h-0.52916v1.0583h-1.0583v-1.0583zm0.52916 1.5875h1.0583v1.0583h-1.0583z" color="#000000" fill="#8c59d9" style="text-decoration-line:none;text-indent:0;text-transform:none"/>
</svg>

<svg width="64" height="64" viewBox="0 0 16.933 16.933" xmlns="http://www.w3.org/2000/svg"><defs><linearGradient id="a" x1="49.571" x2="51.714" y1="52.714" y2="54.857" gradientTransform="translate(-68.667 -72.001) scale(2.3333)" gradientUnits="userSpaceOnUse"><stop offset="0"/><stop stop-opacity="0" offset="1"/></linearGradient></defs><g transform="scale(.26458)"><rect x="8" y="4" width="48" height="56" ry="5" fill="#f4f4f4" style="paint-order:stroke fill markers"/><path d="M56 46 42 60h9c2.77 0 5-2.23 5-5z" fill="url(#a)" fill-rule="evenodd" opacity=".1" style="paint-order:stroke fill markers"/></g><path d="M5.82 6.35s-1.058 0-1.058 1.058v2.117c0 1.058 1.059 1.058 1.059 1.058h1.587v-.53H5.821s-.53 0-.53-.528V7.408c0-.529.53-.529.53-.529h1.587v-.53zm3.176 0v1.058H7.937v.53h1.059v1.058H7.937v.529h1.059v1.058h.529V9.525h1.058v1.058h.53V9.525h1.058v-.53h-1.059V7.938h1.059v-.529h-1.059V6.35h-.529v1.058H9.525V6.35zm.529 1.587h1.058v1.059H9.525z" color="#000" fill="#8c59d9" style="text-decoration-line:none;text-indent:0;text-transform:none"/></svg>
